packages/icons/src/components/Logo/assets/dark/wordpress.svg

<svg width="20" height="20" viewBox="0 0 20 20" fill="none" xmlns="http://www.w3.org/2000/svg">
<path d="M1.42145 9.99975C1.42145 13.3955 3.39479 16.3298 6.25629 17.7206L2.16417 6.50849C1.67361 7.60699 1.42052 8.79669 1.42145 9.99975ZM15.7913 9.56685C15.7913 8.50664 15.4105 7.77241 15.0838 7.20093C14.649 6.49429 14.2416 5.89587 14.2416 5.18922C14.2416 4.40064 14.8395 3.66657 15.6819 3.66657C15.72 3.66657 15.756 3.67131 15.7933 3.67343C14.2669 2.27516 12.2334 1.42144 10.0001 1.42144C7.00309 1.42144 4.36636 2.95911 2.83245 5.28814C3.03372 5.29418 3.22356 5.29827 3.38451 5.29827C4.28181 5.29827 5.67077 5.18939 5.67077 5.18939C6.13321 5.16213 6.18773 5.84135 5.72594 5.89603C5.72594 5.89603 5.26105 5.95071 4.74392 5.97781L7.86791 15.2699L9.74543 9.63949L8.4087 5.97765C7.94675 5.95055 7.50912 5.89587 7.50912 5.89587C7.04684 5.86877 7.10103 5.16196 7.56331 5.18922C7.56331 5.18922 8.98002 5.2981 9.82296 5.2981C10.7201 5.2981 12.1092 5.18922 12.1092 5.18922C12.572 5.16196 12.6264 5.84118 12.1642 5.89587C12.1642 5.89587 11.6985 5.95055 11.1824 5.97765L14.2825 15.1994L15.138 12.34C15.5091 11.1535 15.7913 10.3012 15.7913 9.56685Z" fill="white"/>
<path d="M10.1506 10.7501L7.57668 18.2292C8.36358 18.4611 9.1797 18.5789 10.0001 18.5789C10.9991 18.5789 11.9571 18.406 12.8488 18.0926C12.8249 18.0551 12.8045 18.0156 12.7878 17.9744L10.1506 10.7501ZM17.5275 5.88396C17.5644 6.15722 17.5853 6.45071 17.5853 6.76608C17.5853 7.63661 17.4227 8.6152 16.933 9.8388L14.3126 17.415C16.863 15.9278 18.5784 13.1647 18.5784 9.99975C18.5807 8.56116 18.2192 7.14535 17.5275 5.88396Z" fill="white"/>
<path d="M10.0001 0C4.48619 0 0 4.48585 0 9.99974C0 15.5143 4.48603 20.0001 10.0001 20.0001C15.5139 20.0001 20.0007 15.5145 20.0007 9.99974C20.0006 4.48585 15.5139 0 10.0001 0ZM10.0001 19.5416C4.73905 19.5416 0.458528 15.2611 0.458528 9.99974C0.458528 4.73886 4.73888 0.458689 10.0001 0.458689C15.261 0.458689 19.5412 4.73886 19.5412 9.99974C19.5412 15.2611 15.2609 19.5416 10.0001 19.5416Z" fill="white"/>
</svg>

<svg xmlns="http://www.w3.org/2000/svg" width="20" height="20" fill="none" viewBox="0 0 20 20">
    <path fill="#fff" d="M1.421 10a8.58 8.58 0 0 0 4.835 7.72L2.164 6.509A8.55 8.55 0 0 0 1.421 10m14.37-.433c0-1.06-.38-1.795-.707-2.366-.435-.707-.842-1.305-.842-2.012 0-.788.597-1.522 1.44-1.522q.056.002.111.006A8.55 8.55 0 0 0 10 1.421a8.57 8.57 0 0 0-7.168 3.867c.202.006.392.01.553.01.897 0 2.286-.109 2.286-.109.462-.027.517.652.055.707 0 0-.465.055-.982.082l3.124 9.292 1.877-5.63L8.41 5.977c-.462-.027-.9-.082-.9-.082-.462-.027-.408-.734.054-.707 0 0 1.417.11 2.26.11.897 0 2.286-.11 2.286-.11.463-.027.517.652.055.707 0 0-.466.055-.982.082l3.1 9.221.856-2.859c.371-1.187.653-2.039.653-2.773"/>
    <path fill="#fff" d="m10.15 10.75-2.573 7.48a8.57 8.57 0 0 0 5.272-.137 1 1 0 0 1-.061-.119zm7.377-4.866q.057.41.058.882c0 .87-.162 1.85-.652 3.073l-2.62 7.576A8.57 8.57 0 0 0 18.578 10a8.5 8.5 0 0 0-1.05-4.116"/>
    <path fill="#fff" d="M10 0C4.486 0 0 4.486 0 10s4.486 10 10 10 10-4.485 10-10S15.515 0 10 0m0 19.542C4.74 19.542.46 15.262.46 10S4.739.459 10 .459s9.541 4.28 9.541 9.54c0 5.262-4.28 9.543-9.54 9.543"/>
</svg>
